frontend/app/images/main/credit-card.svg

<svg width="20" height="20" viewBox="0 0 20 20" fill="none" xmlns="http://www.w3.org/2000/svg">
<path d="M18.3334 4.99992V14.9999C18.3334 15.4583 18.1701 15.8508 17.8434 16.1774C17.5167 16.5041 17.1245 16.6671 16.6667 16.6666H3.33342C2.87508 16.6666 2.48258 16.5033 2.15592 16.1766C1.82925 15.8499 1.66619 15.4577 1.66675 14.9999V4.99992C1.66675 4.54159 1.83008 4.14909 2.15675 3.82242C2.48342 3.49575 2.87564 3.3327 3.33342 3.33325H16.6667C17.1251 3.33325 17.5176 3.49659 17.8442 3.82325C18.1709 4.14992 18.334 4.54214 18.3334 4.99992ZM3.33342 6.66659H16.6667V4.99992H3.33342V6.66659ZM3.33342 9.99992V14.9999H16.6667V9.99992H3.33342Z" fill="#312D3A"/>
</svg>

<svg width="20" height="20" fill="none" xmlns="http://www.w3.org/2000/svg"><path d="M18.333 5v10c0 .458-.163.85-.49 1.177a1.6 1.6 0 01-1.176.49H3.333c-.458 0-.85-.164-1.177-.49A1.602 1.602 0 011.666 15V5c0-.458.164-.85.49-1.178.327-.326.72-.49 1.177-.489h13.334c.458 0 .85.164 1.177.49.327.327.49.72.49 1.177zm-15 1.667h13.334V5H3.333v1.667zm0 3.333v5h13.334v-5H3.333z" fill="#312D3A"/></svg>
